X: 3275
T: The GIRL IN GREEN
%R: jig
B: James Kerr "Merry Melodies" v.3 p.30 #275
Z: 2016 John Chambers <jc:trillian.mit.edu>
M: 6/8
L: 1/8
K: G
|:\
ded BGB | c2B A2G | DGG  GFG | ABA ABc |\
ded BGB | c2B A2G | DGG  EGG | DGG G3 :|
|:\
ded Bdg | ecc c3  | efe ^cea | fdd d3 |\
gfe dcB | edc BAG | DGG  EGG | DGG G3 :|

%%sep 1 1 500
%%sep 1 1 500

